src/categories-icons-sprite/categories/svg-cat-accessories-child.svg

<svg width="34" height="32" viewBox="0 0 34 32" fill="none" xmlns="http://www.w3.org/2000/svg">
<path class="p-AF2768" d="M24.435 13.7487L28.6676 32.0001L22.4238 25.9663L18.8815 31.3097L16.6602 12.4279L18.8815 7.98511L24.435 13.7487Z" fill="#58ADE5"/>
<path class="p-EA348B" d="M8.88596 13.7487L4.65332 31.0995L10.8972 25.9663L14.4394 31.3097L16.6608 12.4279L14.4394 7.98511L8.88596 13.7487Z" fill="#A1D1FD"/>
<path class="p-AF2768" d="M2.43152 0C2.43152 0 0 3.33208 0 8.88554C0 14.439 2.43152 17.7711 2.43152 17.7711C10.2064 17.7711 16.6604 8.88554 16.6604 8.88554C16.6604 8.88554 10.2064 0 2.43152 0Z" fill="#58ADE5"/>
<path class="p-EA348B" d="M30.889 0C23.1142 0 16.6602 8.88554 16.6602 8.88554C16.6602 8.88554 23.1142 17.7711 30.889 17.7711C30.889 17.7711 33.3206 14.439 33.3206 8.88554C33.3206 3.33208 30.889 0 30.889 0Z" fill="#A1D1FD"/>
<path class="p-751A46" d="M16.6605 13.3287C19.1142 13.3287 21.1033 11.3396 21.1033 8.88589C21.1033 6.43221 19.1142 4.44312 16.6605 4.44312C14.2069 4.44312 12.2178 6.43221 12.2178 8.88589C12.2178 11.3396 14.2069 13.3287 16.6605 13.3287Z" fill="#4D98CB"/>
</svg>

<svg width="34" height="32" fill="none" xmlns="http://www.w3.org/2000/svg"><path class="p-AF2768" d="M24.435 13.749L28.668 32l-6.244-6.034-3.543 5.344-2.22-18.882 2.22-4.443 5.554 5.764z" fill="#58ADE5"/><path class="p-EA348B" d="M8.886 13.749l-4.233 17.35 6.244-5.133 3.542 5.344 2.222-18.882-2.222-4.443-5.553 5.764z" fill="#A1D1FD"/><path class="p-AF2768" d="M2.432 0S0 3.332 0 8.886c0 5.553 2.432 8.885 2.432 8.885 7.774 0 14.228-8.885 14.228-8.885S10.206 0 2.432 0z" fill="#58ADE5"/><path class="p-EA348B" d="M30.889 0C23.114 0 16.66 8.886 16.66 8.886s6.454 8.885 14.229 8.885c0 0 2.432-3.332 2.432-8.885C33.32 3.332 30.889 0 30.889 0z" fill="#A1D1FD"/><path class="p-751A46" d="M16.66 13.329a4.443 4.443 0 100-8.886 4.443 4.443 0 000 8.886z" fill="#4D98CB"/></svg>
